X: 31462
T: COTILLION No. 32. LA SOMNAMBULA SETT tune 2
C:
%R: reel, march
B: Elias Howe "The Musician's Companion" Part 3 1844 p.146 #2
S: http://imslp.org/wiki/The_Musician's_Companion_(Howe,_Elias)
Z: 2015 John Chambers <jc:trillian.mit.edu>
M: 2/4
L: 1/16
K: G
% - - - - - - - - - - - - - - - - - - - - - - - - -
(dc) |\
B2g2d2B2 | d2c2 (cd)(cB) | A2e2d2c2 | ^A4 ded^c |\
d2(ga) b2g2 | e2a2 a2g2 | (gf)(ed) d2fa | g2b2g2 H:|
g2 |\
a2(ba) f2a2 | d2a2 f2d2 | (gf).e.d (gf).g.a | b2g2 d2B2 |\
a2(^ga) (ba)(ga) | f2a2f2d2 | g2e2 d2^c2 | e2d2 ded"^D.C."c |]
K: Gm
gb |\
b2ba g2^f2 | a2g2 g2d2 | e2(ed) cBAG | ^F2d2 D2d2 |\
g2(ga) bgdg | (e6 c)A | B2G2 ^c2=e2 | (d4 D2)d"^D.C."^c |]
% - - - - - - - - - - Dance description - - - - - - - - - -
%%begintext align
%% First 2 forward and back,
%% cross over,
%% chassa de chassa,
%% cross back,
%% ladies chain,
%% promenade 4.
%%endtext
% - - - - - - - - - - - - - - - - - - - - - - - - -
%%sep 1 1 300
